X: 28039
T: Moving To Belle Côte
R: jig
M: 6/8
K: Gminor
|:b fdc Bcd|BGE EFG|(D<F<B) (D<F<B)|DFA DFA|
Bbg fdc|BGE EFG|DFB AGA|B3 B2:|
|:C|B,DF FDF|(DG)G (DG)G|(BAB) dcB|AGF edc|
B,DF FDF|Gcc Acc|dcB AGF|B3B:|

